frontend/web/public/sleep.svg

<svg id="Capa_1" enable-background="new 0 0 512 512" height="512" viewBox="0 0 512 512" width="512" xmlns="http://www.w3.org/2000/svg"><g><path d="m332.946 287.024c-94.742.151-172.515-76.968-173.128-171.707-.158-24.42 4.749-47.677 13.731-68.781 4.7-11.042-7.305-21.805-17.626-15.681-59.401 35.244-99.42 99.716-100.225 173.606-1.231 113.025 91.335 206.649 204.366 206.649 92.319 0 170.338-61.212 195.692-145.262 3.441-11.407-9.803-20.582-19.327-13.422-28.827 21.671-64.654 34.537-103.483 34.598z" fill="#eec06b"/><path d="m448.053 250.672c-31.199 72.961-103.617 124.091-187.988 124.092-106.141.001-194.229-82.558-203.556-186.212-.463 5.251-.751 10.552-.81 15.909-1.231 113.025 91.335 206.649 204.366 206.649 92.319 0 170.337-61.212 195.692-145.262 2.099-6.96-2.016-13.081-7.704-15.176z" fill="#e9a52d"/><path d="m270.357 281.167v129.677c66.699-3.31 124.979-38.588 159.835-90.836-.487-19.691-8.512-37.501-21.314-50.659-22.912 11.275-48.681 17.632-75.932 17.676-22.188.035-43.445-4.168-62.998-11.842.261 1.971.409 3.967.409 5.984z" fill="#e9a52d"/><path d="m208.627 234.258c5.39 5.569 11.152 10.779 17.244 15.59 11.104 8.767 17.677 22.059 17.677 36.207v211.44c0 8.011 6.494 14.505 14.505 14.505h36.263c28.952 0 52.423-23.471 52.423-52.423v-13.835h17.361c21.722 0 39.331-17.609 39.331-39.331v-79.621c0-41.636-33.753-75.389-75.389-75.389h-31.558v-2.701c0-22.962-22.945-38.848-44.438-30.767z" fill="#ddebfd"/><g fill="#bed9fd"><path d="m328.041 251.401h-25.944c41.636 0 75.389 33.753 75.389 75.389v79.621c0 21.722-17.609 39.331-39.331 39.331h-3.525c-7.641 0-13.835 6.194-13.835 13.835 0 28.952-23.471 52.423-52.423 52.423h25.944c28.952 0 52.423-23.47 52.423-52.423v-13.835h17.361c21.722 0 39.331-17.609 39.331-39.331v-79.621c0-41.636-33.753-75.389-75.39-75.389z"/><path d="m303.588 325.051c3.924 0 7.104-3.18 7.104-7.104v-66.546h-14.208v66.546c0 3.924 3.18 7.104 7.104 7.104z"/><path d="m353.844 367.201c-3.924 0-7.104 3.18-7.104 7.104v71.437h14.208v-71.437c0-3.924-3.181-7.104-7.104-7.104z"/></g><path d="m340.139 184.891h-28.883c-3.735 0-7.179-2.031-8.987-5.299-1.809-3.269-1.699-7.265.286-10.43l23.819-37.94h-19.928c-4.204 0-7.611-3.408-7.611-7.611s3.407-7.611 7.611-7.611h28.884c3.736 0 7.18 2.031 8.988 5.301s1.697 7.267-.29 10.431l-23.817 37.937h19.928c4.204 0 7.611 3.408 7.611 7.611s-3.407 7.611-7.611 7.611zm-4.809-53.669h.01z" fill="#8c818f"/><path d="m296.932 68.892h-28.883c-3.735 0-7.179-2.031-8.987-5.299-1.809-3.269-1.699-7.266.286-10.43l23.819-37.94h-19.928c-4.204 0-7.611-3.408-7.611-7.611s3.407-7.612 7.611-7.612h28.884c3.736 0 7.18 2.031 8.988 5.301s1.697 7.267-.29 10.431l-23.817 37.937h19.928c4.204 0 7.612 3.408 7.612 7.611s-3.408 7.612-7.612 7.612zm-4.809-53.669h.01z" fill="#8c818f"/><path d="m430.24 120.148h-28.883c-3.736 0-7.181-2.031-8.989-5.301s-1.697-7.266.29-10.431l23.817-37.937h-19.928c-4.204 0-7.612-3.408-7.612-7.611s3.407-7.611 7.612-7.611h28.884c3.736 0 7.18 2.031 8.988 5.301s1.697 7.267-.29 10.431l-23.817 37.937h19.928c4.204 0 7.612 3.408 7.612 7.611s-3.408 7.611-7.612 7.611zm-4.809-53.669h.01z" fill="#8c818f"/></g></svg>

<svg width="512" height="512" viewBox="0 0 512 512" fill="none" xmlns="http://www.w3.org/2000/svg">
<g clip-path="url(#clip0_1211_678)">
<path d="M332.948 287.024C238.206 287.175 160.433 210.056 159.82 115.317C159.662 90.8971 164.569 67.6401 173.551 46.5361C178.251 35.4941 166.246 24.7311 155.925 30.8551C96.5236 66.0991 56.5046 130.571 55.6996 204.461C54.4686 317.486 147.035 411.11 260.066 411.11C352.385 411.11 430.404 349.898 455.758 265.848C459.199 254.441 445.955 245.266 436.431 252.426C407.604 274.097 371.777 286.963 332.948 287.024Z" fill="#EEC06B"/>
<path d="M448.054 250.672C416.855 323.633 344.437 374.763 260.066 374.764C153.925 374.765 65.8366 292.206 56.5096 188.552C56.0466 193.803 55.7586 199.104 55.6996 204.461C54.4686 317.486 147.035 411.11 260.066 411.11C352.385 411.11 430.403 349.898 455.758 265.848C457.857 258.888 453.742 252.767 448.054 250.672Z" fill="#E9A52D"/>
<path d="M270.362 281.167V410.844C337.061 407.534 395.341 372.256 430.197 320.008C429.71 300.317 421.685 282.507 408.883 269.349C385.971 280.624 360.202 286.981 332.951 287.025C310.763 287.06 289.506 282.857 269.953 275.183C270.214 277.154 270.362 279.15 270.362 281.167Z" fill="#E9A52D"/>
<path d="M208.625 234.258C214.015 239.827 219.777 245.037 225.869 249.848C236.973 258.615 243.546 271.907 243.546 286.055V497.495C243.546 505.506 250.04 512 258.051 512H294.314C323.266 512 346.737 488.529 346.737 459.577V445.742H364.098C385.82 445.742 403.429 428.133 403.429 406.411V326.79C403.429 285.154 369.676 251.401 328.04 251.401H296.482V248.7C296.482 225.738 273.537 209.852 252.044 217.933L208.625 234.258Z" fill="#DDEBFD"/>
<path d="M328.044 251.401H302.1C343.736 251.401 377.489 285.154 377.489 326.79V406.411C377.489 428.133 359.88 445.742 338.158 445.742H334.633C326.992 445.742 320.798 451.936 320.798 459.577C320.798 488.529 297.327 512 268.375 512H294.319C323.271 512 346.742 488.53 346.742 459.577V445.742H364.103C385.825 445.742 403.434 428.133 403.434 406.411V326.79C403.434 285.154 369.681 251.401 328.044 251.401Z" fill="#BED9FD"/>
<path d="M303.588 325.051C307.512 325.051 310.692 321.871 310.692 317.947V251.401H296.484V317.947C296.484 321.871 299.664 325.051 303.588 325.051Z" fill="#BED9FD"/>
<path d="M353.846 367.201C349.922 367.201 346.742 370.381 346.742 374.305V445.742H360.95V374.305C360.95 370.381 357.769 367.201 353.846 367.201Z" fill="#BED9FD"/>
<path d="M340.14 184.891H311.257C307.522 184.891 304.078 182.86 302.27 179.592C300.461 176.323 300.571 172.327 302.556 169.162L326.375 131.222H306.447C302.243 131.222 298.836 127.814 298.836 123.611C298.836 119.408 302.243 116 306.447 116H335.331C339.067 116 342.511 118.031 344.319 121.301C346.127 124.571 346.016 128.568 344.029 131.732L320.212 169.669H340.14C344.344 169.669 347.751 173.077 347.751 177.28C347.751 181.483 344.344 184.891 340.14 184.891Z" fill="#8C818F"/>
<path d="M296.937 68.892H268.054C264.319 68.892 260.875 66.861 259.067 63.593C257.258 60.324 257.368 56.327 259.353 53.163L283.172 15.223H263.244C259.04 15.223 255.633 11.815 255.633 7.612C255.633 3.409 259.04 0 263.244 0H292.128C295.864 0 299.308 2.031 301.116 5.301C302.924 8.571 302.813 12.568 300.826 15.732L277.009 53.669H296.937C301.141 53.669 304.549 57.077 304.549 61.28C304.549 65.483 301.141 68.892 296.937 68.892Z" fill="#8C818F"/>
<path d="M430.242 120.148H401.359C397.623 120.148 394.179 118.117 392.371 114.847C390.563 111.577 390.673 107.581 392.66 104.416L416.478 66.4788H396.549C392.345 66.4788 388.938 63.0708 388.938 58.8678C388.938 54.6648 392.344 51.2568 396.549 51.2568H425.434C429.17 51.2568 432.614 53.2878 434.422 56.5578C436.23 59.8278 436.119 63.8248 434.132 66.9888L410.315 104.926H430.242C434.446 104.926 437.854 108.334 437.854 112.537C437.854 116.74 434.446 120.148 430.242 120.148Z" fill="#8C818F"/>
</g>
<defs>
<clipPath id="clip0_1211_678">
<rect width="512" height="512" fill="white"/>
</clipPath>
</defs>
</svg>
